X:3
T:JD's Welcome
M:6/8
C:R.Peppe 01/04/01
K:Cm
CDE GED|CDE GED|B,DF GFD|B,DF GFD|CDE GED|CDE G3|GAG FGF|DGF GFD:|
|:c2d edc|dGG GFD|c2d edc|[1 d3-d2 G|c2d edc|dGG GFD|EFG DED|C3-C2 G:|
[2 g6|ecc cde|dGG GFD|EFG DED|EFG DED||
